X: 3891
T: Black Velvet Band, The
R: waltz
M: 3/4
K: Gmajor
|"G"d2d|Bcd|cB2-|B2A|GAB|GFE|"D7"D3-|D2B/B/|
"G"B2B|"D7"DEF|"G"G2A|B2B|"D7"ABc|FGA|"G"G3-|G2||

